X: 18704
T: I'm Waiting For You
R: reel
M: 4/4
K: Gmajor
G2DG BGDG|AGFG ABc2|BAGF GAB^c|deed cAFA|
BG~G2 DG~G2|FGAB cAFA|~B2GB cBAG|1 FDEF G4:|2 FDEF G2(3B^cd||
g2fg e^cAG|(3FED AD BDAD|EDEF GFGA|(3B^cd ce d2ef|
fee^d e^cAG|(3FED AD BDAD|~G2FE DGBd|1 cAFD G2(3B^cd:|2 cAFA G3B||

